assets/bitsy/mono.svg

<svg viewBox="0 0 24 24" xmlns="http://www.w3.org/2000/svg"><path d="m17.143 12v10.29h-3.429v-3.43h-6.857v3.43h-3.427v-6.86h-3.43v-13.72h3.429v3.43h3.428v-3.43h3.429v10.29zm3.428-3.43v-6.86h3.429v6.86zm-3.428 3.43v-3.43h3.428v3.43z"/></svg>

<svg xmlns="http://www.w3.org/2000/svg" viewBox="0 0 24 24"><path d="M17.143 12v10.29h-3.429v-3.43H6.857v3.43H3.43v-6.86H0V1.71h3.429v3.43h3.428V1.71h3.429V12zm3.428-3.43V1.71H24v6.86zM17.143 12V8.57h3.428V12z"/></svg>
